logos/supertokens.svg

<svg width="72" height="66" viewBox="0 0 72 66" fill="none" xmlns="http://www.w3.org/2000/svg">
<g clip-path="url(#clip0_55_55)">
<path d="M30.5907 65.2016C30.4255 65.2016 30.257 65.1969 30.0901 65.1877C28.0762 65.0652 26.0494 64.3275 24.068 62.9958C23.5627 62.6571 23.0587 62.2927 22.571 61.9402L22.5272 61.9088C21.4855 61.1552 20.421 60.3867 19.3031 59.8026C17.5834 58.8981 15.6702 58.4221 13.7265 58.4151C13.6358 58.4151 13.5467 58.4162 13.456 58.4182C12.6929 58.4335 11.9508 58.462 11.2607 58.6398C10.2351 59.372 9.73452 60.3224 9.77372 61.4638C9.79155 62.0525 9.94869 62.6851 10.2581 63.3973C10.5983 64.1809 10.7361 64.5156 10.7069 64.5595H10.7053C10.6502 64.5595 10.5044 64.3832 10.2306 64.0469C9.14024 62.7036 6.24664 59.1413 2.3699 58.3814C1.901 58.2896 1.46223 58.0832 1.09293 57.7804C0.723631 57.4777 0.435337 57.0883 0.253894 56.6469C0.0724522 56.2056 0.00353224 55.7262 0.0533128 55.2518C0.103093 54.7773 0.270019 54.3226 0.539125 53.9284C10.2034 39.7346 11.4104 34.6639 15.9079 15.7981L16.2983 14.1665C16.5835 12.9654 16.8842 11.7085 17.2006 10.396C17.3067 9.9522 17.516 9.53964 17.8115 9.19169C18.1071 8.84374 18.4806 8.5702 18.9018 8.39324L24.3504 6.12754C24.7019 5.98163 25.0788 5.90661 25.4595 5.9068C25.6109 5.9069 25.762 5.91861 25.9115 5.94182C28.1119 5.06434 30.9941 4.62286 34.4758 4.62286H38.2492C41.739 4.62286 44.6212 5.0665 46.8134 5.94168C46.1742 6.04193 45.5868 6.35246 45.1446 6.82399L28.7324 8.06519H28.7308L28.7292 8.06389L27.5772 6.82399C27.1355 6.35361 26.5495 6.04336 25.9117 5.94211C24.7306 6.41249 23.7293 7.0159 22.9354 7.74226C20.7887 9.70117 19.7 13.2316 19.7 18.2356V38.7561C19.7 43.763 20.7887 47.295 22.9354 49.254C25.1956 51.3208 29.0774 52.3688 34.4758 52.3688H38.2492C43.6476 52.3688 47.5295 51.3208 49.7896 49.254C51.9364 47.2917 53.0251 43.7598 53.0251 38.7561V18.2356C53.0251 13.2349 51.9364 9.70441 49.7896 7.74226C48.999 7.01994 47.9995 6.41408 46.8134 5.94146C46.9619 5.91866 47.1119 5.90705 47.2621 5.90673C47.6426 5.90616 48.0193 5.9811 48.3704 6.12718L53.8203 8.39288C54.2411 8.57004 54.6143 8.84364 54.9096 9.19153C55.2049 9.53942 55.4141 9.95183 55.5201 10.3954C56.5262 14.5819 57.3785 18.3186 57.9989 21.0468C61.4515 36.1829 62.7427 41.8442 71.4611 54.6478C71.7307 55.0417 71.8981 55.4964 71.9482 55.9709C71.9984 56.4454 71.9297 56.9249 71.7484 57.3664C71.567 57.8078 71.2787 58.1974 70.9093 58.5001C70.5399 58.8028 70.1009 59.0092 69.6319 59.1007C65.6755 59.879 63.0816 63.2229 62.2294 64.322C62.0527 64.5491 61.975 64.6463 61.9539 64.6463C61.9345 64.6197 62.022 64.4169 62.2731 63.844L62.4675 63.3972C62.7721 62.6926 62.9295 62.0601 62.9487 61.4638C62.9794 60.4842 62.6166 59.6443 61.8713 58.9673C60.4637 58.6546 59.3033 58.5085 58.221 58.5085C58.0914 58.5085 57.9618 58.5107 57.8322 58.5151C55.5299 58.5997 54.0248 59.2097 53.0948 60.4347C52.9178 60.6739 52.7539 60.9225 52.604 61.1795L52.5829 61.2151C52.4059 61.5264 52.2056 61.824 51.9838 62.1052C51.5074 62.6911 50.9258 62.976 50.2065 62.976C49.2214 62.976 48.1408 62.4316 47.1897 61.9512C46.7927 61.7508 46.4672 61.587 46.1528 61.4546C44.7854 60.8784 43.5865 60.5984 42.4832 60.5984C42.1296 60.5977 41.7767 60.6279 41.4284 60.6886C39.7889 60.9728 38.3113 61.9409 36.8823 62.8773C36.5647 63.0843 36.2488 63.2908 35.9329 63.4898C34.1113 64.6416 32.3632 65.2016 30.5907 65.2016Z" fill="#DCDCDC"/>
<path d="M39.0815 61.4629L39.3478 56.9948L43.3849 55.8273L45.0349 61.0377C45.0349 61.0377 42.001 59.8884 39.0815 61.4629Z" fill="#B7B7B7"/>
<path d="M15.5549 56.768C15.5549 56.8727 15.5597 58.4367 15.5658 58.5635C12.3312 57.9901 9.6907 59.0495 9.77379 61.4627H9.74571V60.7728C9.61332 56.1101 11.9142 52.2062 13.2092 47.8923C14.2716 44.3294 14.7562 33.4837 15.6162 37.0667C16.361 40.1714 16.0147 42.8783 15.5549 46.2628C15.3136 48.0351 15.5549 49.7092 15.5549 51.5045L15.5549 56.768Z" fill="#B7B7B7"/>
<path d="M57.1771 56.768C57.1771 56.8727 57.1709 58.4366 57.1653 58.5634C59.994 58.7112 63.041 59.0495 62.958 61.4627H62.9853V60.7727C63.1181 56.11 60.8167 52.2061 59.5225 47.8923C58.4603 44.3295 57.9759 33.4836 57.1156 37.0665C56.3701 40.1713 56.7164 42.8782 57.1771 46.2627C57.4179 48.035 57.1771 49.7091 57.1771 51.5044V56.768Z" fill="#B7B7B7"/>
<path d="M38.244 9.24647C43.9593 9.24647 46.0318 10.5778 46.6577 11.149C47.7593 12.1564 48.3911 14.7407 48.3911 18.2383V38.7562C48.3911 42.2538 47.7593 44.8374 46.6559 45.8461C46.0311 46.418 43.9598 47.7483 38.2441 47.7483H34.475C28.7592 47.7483 26.6878 46.418 26.0596 45.8433C24.9595 44.8374 24.3279 42.2538 24.3279 38.7562V18.2386C24.3279 14.741 24.9595 12.1567 26.061 11.1493C26.6873 10.5777 28.76 9.24676 34.475 9.24676H38.244M38.244 0.00063725H34.475C27.8546 0.00063725 22.9647 1.44437 19.8054 4.33183C16.646 7.22083 15.0665 11.8566 15.0669 18.2391V38.7562C15.0669 45.1402 16.6464 49.7759 19.8054 52.6634C22.9622 55.5513 27.8521 56.995 34.475 56.9946H38.244C44.8668 56.9946 49.7567 55.5509 52.9136 52.6634C56.0727 49.7751 57.6522 45.1394 57.6522 38.7562V18.2386C57.6522 11.8545 56.0727 7.21872 52.9136 4.33125C49.7568 1.44423 44.8669 0.000493434 38.244 6.10352e-05V0.00063725Z" fill="white"/>
<path d="M36.3597 33.1365C38.5754 33.1365 40.3717 31.3431 40.3717 29.1307C40.3717 26.9184 38.5754 25.125 36.3597 25.125C34.1439 25.125 32.3477 26.9184 32.3477 29.1307C32.3477 31.3431 34.1439 33.1365 36.3597 33.1365Z" fill="white"/>
<path d="M38.2347 39.5459H34.4843C34.3662 39.5458 34.2494 39.521 34.1414 39.4732C34.0335 39.4253 33.9367 39.3555 33.8573 39.2681C33.778 39.1808 33.7178 39.0778 33.6807 38.9658C33.6435 38.8539 33.6302 38.7354 33.6417 38.618L34.4129 30.6959C34.4333 30.4867 34.531 30.2926 34.687 30.1514C34.843 30.0101 35.046 29.9319 35.2565 29.932H37.4627C37.6732 29.9319 37.8763 30.0101 38.0323 30.1513C38.1882 30.2925 38.286 30.4867 38.3064 30.6959L39.0778 38.618C39.0892 38.7355 39.0759 38.8539 39.0387 38.9659C39.0015 39.0779 38.9413 39.1809 38.8619 39.2682C38.7825 39.3556 38.6857 39.4254 38.5777 39.4732C38.4697 39.5211 38.3528 39.5458 38.2347 39.5459V39.5459Z" fill="white"/>
</g>
<defs>
<clipPath id="clip0_55_55">
<rect width="72" height="65.2376" fill="white"/>
</clipPath>
</defs>
</svg>

<svg width="72" height="66" fill="none" xmlns="http://www.w3.org/2000/svg"><g clip-path="url(#a)"><path d="M30.59 65.202c-.165 0-.333-.005-.5-.014-2.014-.123-4.04-.86-6.022-2.192-.505-.339-1.01-.703-1.497-1.056l-.044-.031c-1.042-.754-2.106-1.522-3.224-2.106a12.073 12.073 0 0 0-5.847-1.385c-.763.016-1.505.044-2.195.222-1.026.732-1.526 1.682-1.487 2.824.018.589.175 1.221.484 1.933.34.784.478 1.119.449 1.163h-.002c-.055 0-.2-.177-.474-.513-1.09-1.343-3.984-4.906-7.861-5.666a2.89 2.89 0 0 1-2.116-1.734 2.879 2.879 0 0 1 .285-2.719c9.664-14.193 10.871-19.264 15.369-38.13l.39-1.632c.286-1.2.586-2.457.903-3.77a2.903 2.903 0 0 1 1.7-2.003l5.45-2.265a2.89 2.89 0 0 1 1.56-.186c2.2-.878 5.083-1.32 8.565-1.32h3.773c3.49 0 6.372.444 8.564 1.32-.639.1-1.226.41-1.668.882L28.732 8.065h-.001l-.002-.001-1.152-1.24a2.91 2.91 0 0 0-1.665-.882c-1.181.47-2.183 1.074-2.977 1.8-2.146 1.96-3.235 5.49-3.235 10.494v20.52c0 5.007 1.089 8.539 3.235 10.498 2.26 2.067 6.142 3.115 11.54 3.115h3.774c5.399 0 9.28-1.048 11.54-3.115 2.147-1.962 3.236-5.494 3.236-10.498v-20.52c0-5.001-1.089-8.532-3.235-10.494-.791-.722-1.79-1.328-2.977-1.8a2.874 2.874 0 0 1 1.557.186l5.45 2.265a2.91 2.91 0 0 1 1.7 2.002A874.148 874.148 0 0 1 58 21.047c3.453 15.136 4.744 20.797 13.462 33.6a2.878 2.878 0 0 1-1.83 4.454c-3.956.778-6.55 4.122-7.402 5.221-.176.227-.254.324-.275.324-.02-.026.068-.23.32-.802l.194-.447c.304-.704.461-1.337.48-1.933.031-.98-.331-1.82-1.077-2.497-1.407-.312-2.568-.459-3.65-.459-.13 0-.26.003-.389.007-2.302.085-3.807.695-4.737 1.92-.177.239-.341.487-.491.744l-.021.036a7.12 7.12 0 0 1-.6.89c-.476.586-1.057.871-1.776.871-.986 0-2.066-.544-3.017-1.025-.397-.2-.723-.364-1.037-.496-1.368-.577-2.566-.857-3.67-.857-.353 0-.706.03-1.055.09-1.64.285-3.117 1.253-4.546 2.19-.317.206-.633.413-.95.612-1.82 1.152-3.569 1.712-5.341 1.712Z" fill="#DCDCDC"/><path d="m39.081 61.463.267-4.468 4.037-1.168 1.65 5.21s-3.034-1.149-5.953.426ZM15.555 56.768c0 .105.005 1.669.01 1.795-3.234-.573-5.874.486-5.791 2.9h-.028v-.69c-.133-4.663 2.168-8.567 3.463-12.88 1.063-3.564 1.547-14.41 2.407-10.826.745 3.104.399 5.811-.061 9.196-.241 1.772 0 3.446 0 5.242v5.263ZM57.177 56.768c0 .105-.006 1.669-.012 1.795 2.829.148 5.876.486 5.793 2.9h.027v-.69c.133-4.663-2.168-8.567-3.462-12.88-1.063-3.563-1.547-14.41-2.407-10.827-.746 3.105-.4 5.812.061 9.197.24 1.772 0 3.446 0 5.241v5.264Z" fill="#B7B7B7"/><path d="M38.244 9.246c5.715 0 7.788 1.332 8.414 1.903 1.101 1.007 1.733 3.592 1.733 7.09v20.517c0 3.498-.632 6.081-1.735 7.09-.625.572-2.696 1.902-8.412 1.902h-3.769c-5.716 0-7.787-1.33-8.415-1.905-1.1-1.006-1.732-3.59-1.732-7.087V18.24c0-3.498.631-6.082 1.733-7.09.626-.571 2.699-1.902 8.414-1.902h3.769m0-9.246h-3.769c-6.62 0-11.51 1.443-14.67 4.33-3.159 2.89-4.739 7.526-4.738 13.908v20.517c0 6.384 1.58 11.02 4.738 13.907 3.157 2.888 8.047 4.332 14.67 4.332h3.769c6.623 0 11.513-1.444 14.67-4.332 3.159-2.888 4.738-7.524 4.738-13.907V18.24c0-6.385-1.58-11.02-4.738-13.908-3.157-2.887-8.047-4.33-14.67-4.33Z" fill="#fff"/><path d="M36.36 33.136a4.009 4.009 0 0 0 4.012-4.005 4.009 4.009 0 0 0-4.012-4.006 4.009 4.009 0 0 0-4.012 4.006 4.009 4.009 0 0 0 4.012 4.005Z" fill="#fff"/><path d="M38.235 39.546h-3.75a.85.85 0 0 1-.843-.928l.77-7.922a.845.845 0 0 1 .845-.764h2.206a.848.848 0 0 1 .843.764l.772 7.922a.844.844 0 0 1-.843.928Z" fill="#fff"/></g><defs><clipPath id="a"><path fill="#fff" d="M0 0h72v65.238H0z"/></clipPath></defs></svg>
